humanity-icon-theme/Humanity-Dark/status/22/network-error.svg

<?xml version="1.0" encoding="UTF-8" standalone="no"?>
<!-- Created with Inkscape (http://www.inkscape.org/) -->

<svg
   xmlns:svg="http://www.w3.org/2000/svg"
   xmlns="http://www.w3.org/2000/svg"
   version="1.1"
   width="22"
   height="22"
   id="svg3745">
  <defs
     id="defs3747" />
  <g
     transform="translate(0,6)"
     id="layer1">
    <path
       d="M 9.81691,11.839897 C 8.248478,13.395634 5.7158392,13.385342 4.1601026,11.81691 2.6043661,10.248478 2.6146578,7.715839 4.1830898,6.160103 4.2425382,6.101135 4.3038234,6.04405 4.366855,5.9889292 L 7,9 9.81691,11.839897 z M 5,12 4,11 1,14 2,15 5,12 z"
       id="path3765"
       style="fill:#ff0f0f;fill-opacity:1;stroke:none" />
    <path
       d="m 11.18309,-0.839897 c 1.568432,-1.555737 4.101071,-1.545445 5.656807,0.022987 1.555737,1.568432 1.545445,4.101071 -0.02299,5.656807 -0.05945,0.058968 -0.120733,0.116053 -0.183765,0.1711738 L 14,2 11.18309,-0.839897 z M 20,-3 l -1,-1 -3,3 1,1 3,-3 z"
       id="path3767"
       style="fill:#ff0f0f;fill-opacity:1;stroke:none" />
  </g>
</svg>

<?xml version="1.0" encoding="UTF-8" standalone="no"?>
<!-- Created with Inkscape (http://www.inkscape.org/) -->
<svg id="svg3745" xmlns="http://www.w3.org/2000/svg" height="22" width="22" version="1.1">
 <g id="layer1" transform="translate(0,6)">
  <path id="path3765" style="fill:#ff0f0f" d="m9.8169 11.84c-1.5684 1.556-4.1011 1.545-5.6568-0.023-1.5557-1.569-1.5454-4.1012 0.023-5.6569 0.0594-0.059 0.1207-0.1161 0.1838-0.1712l2.6331 3.0111 2.8169 2.84zm-4.8169 0.16-1-1-3 3 1 1 3-3z"/>
  <path id="path3767" style="fill:#ff0f0f" d="m11.183-0.8399c1.5684-1.5557 4.1011-1.5454 5.6568 0.022987s1.5454 4.1011-0.02299 5.6568c-0.05945 0.058968-0.12073 0.11605-0.18376 0.17117l-2.633-3.0111-2.817-2.8399zm8.817-2.1601l-1-1-3 3 1 1 3-3z"/>
 </g>
</svg>
